X:351
T:Polska efter Thorsjö
T:(Sv. L. Sm. 216)
R:Polska
Z:Jonas Brunskog, 14/7 2008
O:Markaryd, Småland
S:efter Nils Bernhard Ljunggren
S:efter Hjalmar Thorsjö
B:Svenska Låtar Småland
B:http://www.smus.se/earkiv/fmk/browselarge.php?lang=sw&katalogid=Sm+12&bildnr=00007
N:Sv. L. Sm. 216
N:Ljunggren hade låten efter Hjalmar Thorsjö.
M:3/4
L:1/16
K:Bb
|:B2d2 F2B2 d2f2|ecAc ecAc ecAc|B2d2 F2B2 d2f2|ecAc c2B2 B4:|
|:B2bb b2BB B2B2|B2gg g2EE E2E2|B2d2 F2B2 d2f2|ecAc c2B2 B4:|
(:musicend:)

(:music:)
